svgs/bsnl_selfcare.svg

<svg width="192" height="192" viewBox="0 0 192 192" fill="none" xmlns="http://www.w3.org/2000/svg">
<path d="M121.103 26.9031C135.227 21.3571 146.068 20.4763 151.145 24.4631C161.494 32.5891 145.524 58.3031 115.476 81.8971C114.064 83.0062 112.634 84.0995 111.186 85.1771" stroke="black" stroke-width="12" stroke-linecap="round" stroke-linejoin="round"/>
<path d="M97.6451 75.9116L115.873 91.7472L97.5664 91.8156L97.6451 75.9116Z" stroke="black" stroke-width="12" stroke-linecap="round" stroke-linejoin="round"/>
<path d="M71.8969 112.072C57.7732 117.618 46.9326 118.499 41.8556 114.512C31.5064 106.386 47.4759 80.6723 77.5241 57.0783C78.936 55.969 80.3663 54.8757 81.8147 53.7983" stroke="black" stroke-width="12" stroke-linecap="round" stroke-linejoin="round"/>
<path d="M95.0134 62.16L74.9631 44.7408L95.0999 44.666L95.0134 62.16Z" stroke="black" stroke-width="12" stroke-linecap="round" stroke-linejoin="round"/>
<path d="M94.9539 108.827C119.285 108.827 139.008 91.0944 139.008 69.22C139.008 47.3455 119.285 29.6128 94.9539 29.6128C70.6233 29.6128 50.8994 47.3455 50.8994 69.22C50.8994 91.0944 70.6233 108.827 94.9539 108.827Z" stroke="black" stroke-width="12" stroke-linecap="round" stroke-linejoin="round"/>
<path d="M41.53 150.169C44.5444 150.186 47.4288 151.238 49.5535 153.096C51.6783 154.953 52.8708 157.466 52.8708 160.085C52.8708 162.704 51.6783 165.216 49.5535 167.074C47.4288 168.931 44.5444 169.983 41.53 170H22.699V130.339H41.53C44.5569 130.339 47.4598 131.383 49.6001 133.243C51.7404 135.102 52.9428 137.624 52.9428 140.254C52.9428 142.884 51.7404 145.406 49.6001 147.265C47.4598 149.125 44.5569 150.169 41.53 150.169Z" stroke="black" stroke-width="12" stroke-linecap="round" stroke-linejoin="round"/>
<path d="M147.477 130.12V169.78H170.3" stroke="black" stroke-width="12" stroke-linecap="round" stroke-linejoin="round"/>
<path d="M104.516 169.836V130.172L134.761 169.836V130.172" stroke="black" stroke-width="12" stroke-linecap="round" stroke-linejoin="round"/>
<path d="M63.8244 165.36C65.1767 166.843 66.9191 168.022 68.9051 168.799C70.8911 169.575 73.0627 169.926 75.2372 169.822H82.085C85.1091 169.814 88.0069 168.767 90.1454 166.909C92.2839 165.052 93.4892 162.534 93.4982 159.907C93.4894 157.279 92.284 154.762 90.1456 152.904C88.0071 151.046 85.1092 149.999 82.085 149.991H74.6667C71.6426 149.983 68.7448 148.936 66.6064 147.078C64.468 145.221 63.2628 142.703 63.2539 140.076C63.2625 137.448 64.4677 134.931 66.6061 133.073C68.7445 131.215 71.6424 130.168 74.6667 130.16H81.5145C83.7028 129.944 85.9177 130.244 87.9261 131.029C89.9345 131.815 91.6622 133.056 92.9273 134.622" stroke="black" stroke-width="12" stroke-linecap="round" stroke-linejoin="round"/>
<path d="M41.53 150.169H22.6985" stroke="black" stroke-width="12" stroke-linecap="round" stroke-linejoin="round"/>
</svg>

<svg width="192" height="192" viewBox="0 0 192 192" fill="none" xmlns="http://www.w3.org/2000/svg"><path d="M121.103 26.903c14.124-5.546 24.965-6.427 30.042-2.44 10.349 8.126-5.621 33.84-35.669 57.434a207.321 207.321 0 0 1-4.29 3.28M97.645 75.912l18.228 15.835-18.307.069.08-15.904ZM71.897 112.072c-14.124 5.546-24.964 6.427-30.041 2.44-10.35-8.126 5.62-33.84 35.668-57.434a204.649 204.649 0 0 1 4.29-3.28M95.013 62.16l-20.05-17.42 20.137-.074-.087 17.494Z" stroke="#000" stroke-width="12" stroke-linecap="round" stroke-linejoin="round"/><path d="M94.954 108.827c24.331 0 44.054-17.733 44.054-39.607s-19.723-39.607-44.054-39.607c-24.33 0-44.055 17.733-44.055 39.607s19.724 39.607 44.055 39.607ZM41.53 150.169c3.014.017 5.899 1.069 8.023 2.927 2.125 1.857 3.318 4.37 3.318 6.989 0 2.619-1.193 5.131-3.318 6.989-2.124 1.857-5.009 2.909-8.023 2.926H22.699v-39.661H41.53c3.027 0 5.93 1.044 8.07 2.904 2.14 1.859 3.343 4.381 3.343 7.011s-1.203 5.152-3.343 7.011c-2.14 1.86-5.043 2.904-8.07 2.904ZM147.477 130.12v39.66H170.3M104.516 169.836v-39.664l30.245 39.664v-39.664M63.824 165.36c1.353 1.483 3.095 2.662 5.081 3.439a15.426 15.426 0 0 0 6.332 1.023h6.848c3.024-.008 5.922-1.055 8.06-2.913 2.139-1.857 3.344-4.375 3.353-7.002-.009-2.628-1.214-5.145-3.352-7.003-2.139-1.858-5.037-2.905-8.061-2.913h-7.418c-3.024-.008-5.922-1.055-8.06-2.913-2.139-1.857-3.344-4.375-3.353-7.002.009-2.628 1.214-5.145 3.352-7.003 2.139-1.858 5.036-2.905 8.06-2.913h6.849a13.924 13.924 0 0 1 6.411.869c2.008.786 3.736 2.027 5.001 3.593M41.53 150.169H22.698" stroke="#000" stroke-width="12" stroke-linecap="round" stroke-linejoin="round"/></svg>
